svg/size_xs.svg

<?xml version="1.0" encoding="UTF-8"?><!DOCTYPE svg PUBLIC "-//W3C//DTD SVG 1.1//EN" "http://www.w3.org/Graphics/SVG/1.1/DTD/svg11.dtd"><svg xmlns="http://www.w3.org/2000/svg" xmlns:xlink="http://www.w3.org/1999/xlink" version="1.1" id="mdi-size-xs" width="24" height="24" viewBox="0 0 24 24"><path d="M6 7H8L9 9.5L10 7H12L10 12L12 17H10L9 14.5L8 17H6L8 12L6 7M15 7H19V9H15V11H17C18.11 11 19 11.9 19 13V15C19 16.11 18.11 17 17 17H13V15H17V13H15C13.9 13 13 12.11 13 11V9C13 7.9 13.9 7 15 7Z" /></svg>

<svg xmlns="http://www.w3.org/2000/svg" viewBox="0 0 24 24"><path d="M6 7h2l1 2.5L10 7h2l-2 5 2 5h-2l-1-2.5L8 17H6l2-5zm9 0h4v2h-4v2h2a2 2 0 0 1 2 2v2c0 1.11-.89 2-2 2h-4v-2h4v-2h-2a2 2 0 0 1-2-2V9c0-1.1.9-2 2-2"/></svg>
